build/finance/CardTPOutline.svg

<svg xmlns="http://www.w3.org/2000/svg" fill="none" viewBox="0 0 24 24" focusable="false"><path d="M0 0H24V24H0z"/><path fill="#74767B" fill-rule="evenodd" d="M3 15.9998C3 17.6566 4.34314 18.9998 6 18.9998L18 18.9998C19.6569 18.9998 21 17.6566 21 15.9998L21 7.99976C21 6.44646 19.8195 5.16887 18.3067 5.01524C18.2059 5.005 18.1036 4.99976 18 4.99976L6 4.99976C4.34315 4.99976 3 6.3429 3 7.99976L3 15.9998ZM18 6.29976C18.9389 6.29976 19.7 7.06087 19.7 7.99976L19.7 8.28931L4.49531 8.28931C4.42726 8.28931 4.36165 8.29976 4.3 8.31916L4.3 7.99976C4.3 7.06087 5.06112 6.29976 6 6.29976L18 6.29976ZM4.3 9.55945L4.3 15.9998C4.3 16.9386 5.06112 17.6998 6 17.6998L18 17.6998C18.9389 17.6998 19.7 16.9386 19.7 15.9998L19.7 9.58931L4.49531 9.58931C4.42726 9.58931 4.36165 9.57885 4.3 9.55945ZM6.49005 11.1942C6.49005 10.8352 6.78107 10.5442 7.14005 10.5442L11.1401 10.5442C11.499 10.5442 11.7901 10.8352 11.7901 11.1942C11.7901 11.5532 11.499 11.8442 11.1401 11.8442L9.79005 11.8442L9.79005 16.1042C9.79005 16.4631 9.49904 16.7542 9.14005 16.7542C8.78107 16.7542 8.49005 16.4631 8.49005 16.1042L8.49005 11.8442L7.14005 11.8442C6.78107 11.8442 6.49005 11.5532 6.49005 11.1942ZM13.44 10.5442L15.2191 10.5442C16.4843 10.5442 17.51 11.5698 17.51 12.835C17.51 14.1002 16.4843 15.1258 15.2191 15.1258L14.09 15.1258L14.09 16.104C14.09 16.463 13.799 16.754 13.44 16.754C13.0811 16.754 12.79 16.463 12.79 16.104L12.79 11.1942C12.79 10.8352 13.0811 10.5442 13.44 10.5442ZM14.09 11.8442L14.09 13.8258L15.2191 13.8258C15.7663 13.8258 16.21 13.3822 16.21 12.835C16.21 12.2878 15.7663 11.8442 15.2191 11.8442L14.09 11.8442Z"/></svg>

<svg xmlns="http://www.w3.org/2000/svg" fill="none" viewBox="0 0 24 24" focusable="false"><path fill="#74767B" fill-rule="evenodd" d="M3 15.99c0 1.66 1.34 3 3 3h12c1.65 0 3-1.34 3-3v-8c0-1.55-1.19-2.83-2.7-2.98-.1-.01-.2-.02-.3-.02H6c-1.66 0-3 1.35-3 3zm15-9.7c.93 0 1.7.77 1.7 1.7v.29H4.49c-.07 0-.13.01-.19.03v-.32c0-.93.76-1.7 1.7-1.7zM4.3 9.55v6.44c0 .94.76 1.7 1.7 1.7h12c.93 0 1.7-.76 1.7-1.7V9.58H4.49c-.07 0-.13-.01-.19-.03m2.84.99c-.36 0-.65.29-.65.65s.29.65.65.65h1.35v4.26c0 .36.29.65.65.65.35 0 .65-.29.65-.65v-4.26h1.35c.35 0 .65-.29.65-.65s-.3-.65-.65-.65zm6.3 0h1.77c1.27 0 2.29 1.02 2.29 2.29s-1.02 2.29-2.29 2.29h-1.12v.98c0 .36-.3.65-.65.65-.36 0-.65-.29-.65-.65v-4.91c0-.36.29-.65.65-.65m.65 1.3v1.98h1.12c.55 0 .99-.44.99-.99s-.44-.99-.99-.99z"/></svg>
